X:15
T:Kendal House
M:2/4
L:1/8
B:Thompson's Compleat Collection of 200 Favourite Country Dances, vol. 1 (London, 1757)
Z:Transcribed and edited by Fynnian Titford-Mock, 2007
Z:abc's:AK/Fiddler's Companion
K:Bb
f|d>c BA|{A}B3f|ga ba|g2 f2|ga bg|fa be|df ed|
c3:|f|d>c =B_a|_a2 gf|ed c=B|c3e|A>G Fg|g2 fB|
A/B/c/d/ ed|c3f|d>c Bb|ag fe|dc/B/ FA|B3:|

